X: 1
T: the Stonedyke Jig
C: Alasdair Heron
R: jig
Z: 2009 John Chambers <jc:trillian.mit.edu>
M: 6/8
L: 1/8
K: A
zf  \
| "A"efe c2c | "Bm"BcB F2F | "E"EGB EGB | "E7"dcB "A"c2f \
| "A"efe c2c | "Bm"BcB F2F | "E"EGB EGB | "E7"dcB "A"A  :|
|: BA \
| "E"GEE "E7"BAG | "A"AEE cBA | "E7"BEE dcB | "A"e2e "E7"e_ed \
| "A"c2c ABc | "Bm"B2B F2F | "E"EGB EGB | "E7"dcB "A"A :|
